docs/img/anor.svg

<svg xmlns="http://www.w3.org/2000/svg" fill-rule="evenodd" clip-rule="evenodd" image-rendering="optimizeQuality" shape-rendering="geometricPrecision" text-rendering="geometricPrecision" viewBox="0 0 339 340">
  <path fill="#e00c58" d="M162.7 55c-2.5 2.9-5 8.7-6.2 14.4l-.6 2.9-2.6-2.7c-1.4-1.6-4.1-3.4-5.9-4.2-3.8-1.6-12.2-1.8-14.4-.4-1.2.7-1 1.2 1.2 3 3.1 2.4 8.4 12.7 9.3 18.1l.7 3.5-8.4 1.8c-22.1 4.8-38.4 13.2-52.3 27.1-12.9 12.9-21.2 28.3-24.2 44.8-1.6 8.8-1.3 28.6.7 44.1 2.5 19.8 13.4 40.6 28.3 54.2 42.3 38.3 124.4 36.1 161.9-4.4 14.5-15.7 22.3-34.4 24.8-59.7 3.8-37.8-9.9-71.1-36.7-89.3-11.9-8.1-27.6-14.4-42.6-17.2l-6.9-1.3.7-3.6c1-5.7 5.2-14 8.7-17.3 3.8-3.6 2.8-4.8-4.4-4.8-6 0-9.5 1.4-13.5 5.2l-3.2 3.1-.6-2.9C174.3 59.9 170 52 167 52c-1 0-2.9 1.3-4.3 3zm39.5 44c18.5 4.8 32.8 12.9 44.1 25 16.3 17.3 23.6 42.5 20.9 71.7-3.5 37.2-19.9 61.9-49.5 74.5-18.7 8-26.7 9.4-34.2 5.9-11.3-5.2-16.5-18.7-18.5-47.3-2.5-36.1.5-97.8 5.6-115.8 4.2-15.1 12.9-18.9 31.6-14z"/>
  <path fill="#b30d4b" d="M188.5 89.5h2c39.22 4.734 66.053 25.401 80.5 62 8.474 31.198 5.474 61.198-9 90-16.373 25.949-39.873 40.949-70.5 45-12.706-1.62-21.873-8.287-27.5-20a607.423 607.423 0 0 1-8-26 1114.678 1114.678 0 0 0-2.5-49 863.95 863.95 0 0 1 3.5-52 708.777 708.777 0 0 1 7-34c4.464-11.34 12.631-16.674 24.5-16Z"/>
  <path fill="#fcedca" d="M182.5 96.5c52.935 4.102 81.269 32.602 85 85.5.623 25.124-6.543 47.624-21.5 67.5-15.303 15.152-33.636 24.485-55 28-7.767-.765-13.767-4.432-18-11-4.714-10.145-7.381-20.811-8-32a1721.64 1721.64 0 0 1 0-83 227.812 227.812 0 0 1 6-42c2.3-5.794 6.133-10.127 11.5-13Z"/>
  <path fill="#b30d4b" d="M185.5 106.5c41.574 2.409 66.074 24.076 73.5 65a162.756 162.756 0 0 1-1 33c-2.697 9.267-8.864 13.434-18.5 12.5a713.415 713.415 0 0 0-36-12c-10.578-4.592-20.078-10.758-28.5-18.5a22.981 22.981 0 0 1-2-5 312.898 312.898 0 0 1 3-57c-.18-7.983 2.987-13.983 9.5-18Z"/>
  <path fill="#e72d62" d="M185.5 112.5c6.261-1.063 9.595 1.437 10 7.5.022 6.49-2.978 10.656-9 12.5a7.93 7.93 0 0 1-3.5-1c-3.98-7.174-3.147-13.507 2.5-19Z"/>
  <path fill="#fbdbe1" d="M185.5 114.5c4.697 1.374 5.031 3.374 1 6-3.475-1.584-3.808-3.584-1-6Z"/>
  <path fill="#e72d62" d="M205.5 115.5c10.993.186 13.827 5.186 8.5 15-2.489 3.332-5.656 5.666-9.5 7-4.431-1.541-6.098-4.708-5-9.5-.776-5.612 1.224-9.778 6-12.5Z"/>
  <path fill="#fbdbe1" d="M205.5 118.5h4c.49 2.448-.343 4.115-2.5 5-2.611-1-3.111-2.667-1.5-5Z"/>
  <path fill="#e72d62" d="M222.5 124.5c10.06-.784 13.56 3.549 10.5 13-4.456 5.501-9.956 7.334-16.5 5.5-2.366-4.658-1.866-9.158 1.5-13.5a31.447 31.447 0 0 0 4.5-5Z"/>
  <path fill="#fbdbe1" d="M224.5 126.5c3.661-.15 4.661 1.35 3 4.5-3.793.487-4.793-1.013-3-4.5Z"/>
  <path fill="#e72d62" d="M189.5 136.5c5.887-.746 8.887 1.754 9 7.5-.233 8.581-4.4 12.414-12.5 11.5-4.114-7.487-2.947-13.82 3.5-19Z"/>
  <path fill="#fbdbe1" d="M189.5 138.5c4.697 1.374 5.031 3.374 1 6-3.475-1.584-3.808-3.584-1-6Z"/>
  <path fill="#e72d62" d="M235.5 139.5c9.157-1.011 12.99 2.989 11.5 12-5.028 5.452-11.194 7.285-18.5 5.5-2.707-1.864-3.541-4.364-2.5-7.5 2.696-3.861 5.863-7.194 9.5-10Z"/>
  <path fill="#fbdbe1" d="M237.5 141.5c3.638-.763 5.138.57 4.5 4-4.585 1.913-6.085.579-4.5-4Z"/>
  <path fill="#e72d62" d="M205.5 144.5c12.176.974 14.176 6.14 6 15.5-9.056 4.978-12.889 2.478-11.5-7.5 1.273-3.097 3.107-5.764 5.5-8Z"/>
  <path fill="#fbdbe1" d="M206.5 145.5c3.85.201 4.85 2.034 3 5.5-3.963.118-4.963-1.716-3-5.5Z"/>
  <path fill="#e72d62" d="M217.5 159.5c7.879-.284 10.712 3.383 8.5 11-5.506 4.698-11.173 5.031-17 1-.667-1.667-.667-3.333 0-5 2.441-2.954 5.275-5.287 8.5-7Zm25-2c7.998-.5 11.831 3.167 11.5 11-2.262 4.431-5.929 6.431-11 6-3.651.005-6.984-.995-10-3-1.373-2.195-1.706-4.529-1-7 3.154-3.012 6.654-5.345 10.5-7Z"/>
  <path fill="#fbdbe1" d="M243.5 159.5c3.85.201 4.85 2.034 3 5.5-3.963.118-4.963-1.716-3-5.5Zm-26 2h5v4c-3.45.744-5.116-.59-5-4Z"/>
  <path fill="#e72d62" d="M182.5 159.5c4.895-.404 7.562 1.763 8 6.5-.742 5.672-3.742 9.505-9 11.5-1.925-.09-3.092-1.09-3.5-3a30.485 30.485 0 0 1 0-11c1.397-1.57 2.897-2.904 4.5-4Z"/>
  <path fill="#fbdbe1" d="M181.5 162.5h4v4h-4v-4Z"/>
  <path fill="#e72d62" d="M197.5 168.5c5.826-.343 8.326 2.324 7.5 8-2.402 5.592-6.569 7.425-12.5 5.5-2.337-2.593-2.504-5.426-.5-8.5a37.84 37.84 0 0 1 5.5-5Z"/>
  <path fill="#fbdbe1" d="M197.5 170.5h3v4c-3.454.233-4.454-1.1-3-4Z"/>
  <path fill="#e72d62" d="M215.5 177.5c5.349-1.039 9.849.295 13.5 4 1.608 7.12-1.226 10.454-8.5 10-4.094.202-7.594-1.131-10.5-4-.667-2-.667-4 0-6a59.93 59.93 0 0 1 5.5-4Z"/>
  <path fill="#fbdbe1" d="M220.5 179.5h4c.49 2.448-.343 4.115-2.5 5-2.611-1-3.111-2.667-1.5-5Z"/>
  <path fill="#e72d62" d="M239.5 177.5c6.201-1.215 11.368.452 15.5 5 1.377 8.29-2.123 12.123-10.5 11.5-6.655-1.321-10.489-5.154-11.5-11.5 1.805-2.326 3.972-3.992 6.5-5Z"/>
  <path fill="#fbdbe1" d="M245.5 179.5c3.638-.763 5.138.57 4.5 4-3.669 1.509-5.169.176-4.5-4Z"/>
  <path fill="#e72d62" d="M191.5 185.5c4.283-.511 8.283.156 12 2 2.453 2.496 2.62 5.162.5 8-6.868 3.5-12.035 1.666-15.5-5.5a20.987 20.987 0 0 1 3-4.5Z"/>
  <path fill="#fbdbe1" d="M197.5 186.5c3-.333 4.333 1 4 4h-4v-4Z"/>
  <path fill="#e72d62" d="M211.5 194.5c5.265-.929 9.765.404 13.5 4 .067 9.351-4.1 11.517-12.5 6.5-3.565-3.216-3.898-6.716-1-10.5Zm24 2c5.215-.798 9.715.536 13.5 4 2.343 8.992-1.157 12.492-10.5 10.5-4.578-2.212-7.078-5.712-7.5-10.5 1.25-1.693 2.75-3.027 4.5-4Z"/>
  <path fill="#fbdbe1" d="M218.5 197.5h4v4h-4v-4Zm22 1c3.41-.116 4.744 1.55 4 5-4.435.578-5.768-1.089-4-5Z"/>
  <path fill="#b30d4b" d="M177.5 202.5a12.93 12.93 0 0 1 5 .5 267.498 267.498 0 0 0 19 11 373.994 373.994 0 0 1 34 12c6.796 3.422 8.629 8.589 5.5 15.5-12.492 13.981-27.992 22.648-46.5 26-6.714-.276-11.881-3.276-15.5-9a51.614 51.614 0 0 1-5-15 242.624 242.624 0 0 1-2-34c.938-3.098 2.772-5.431 5.5-7Z"/>
  <path fill="#e72d62" d="M188.5 211.5c3.682.091 6.849 1.424 9.5 4 1.167 5.5-1 7.667-6.5 6.5-4.529-2.803-5.529-6.303-3-10.5Z"/>
  <path fill="#fbdbe1" d="M189.5 212.5c3.361.703 3.694 2.037 1 4-2.142-.937-2.476-2.27-1-4Z"/>
  <path fill="#e72d62" d="M177.5 214.5c2.579-.417 4.746.25 6.5 2a16.242 16.242 0 0 1 0 8c-4.382 4.446-7.549 3.613-9.5-2.5a33.697 33.697 0 0 1 3-7.5Z"/>
  <path fill="#fbdbe1" d="M178.5 215.5h3v3h-3v-3Z"/>
  <path fill="#e72d62" d="M203.5 219.5c6.495-.76 10.495 1.907 12 8 .11 1.874-.556 3.374-2 4.5-7.049 1.646-11.382-1.021-13-8 .057-2.209 1.057-3.709 3-4.5Z"/>
  <path fill="#fbdbe1" d="M202.5 221.5h4v4c-3 .333-4.333-1-4-4Z"/>
  <path fill="#e72d62" d="M190.5 225.5c6.309.806 10.309 4.306 12 10.5-1.882 7.182-5.716 8.349-11.5 3.5-3.01-4.679-3.177-9.346-.5-14Z"/>
  <path fill="#fbdbe1" d="M191.5 227.5c3-.333 4.333 1 4 4h-5c-.067-1.459.266-2.792 1-4Z"/>
  <path fill="#e72d62" d="M222.5 226.5c9.759-.072 14.592 4.595 14.5 14-2.251 3.626-5.418 4.793-9.5 3.5-4.509-3.005-7.176-7.172-8-12.5a11.948 11.948 0 0 1 3-5Z"/>
  <path fill="#fbdbe1" d="M222.5 228.5a8.43 8.43 0 0 1 4 .5c.974 2.702-.026 4.035-3 4-2.048-1.226-2.381-2.726-1-4.5Z"/>
  <path fill="#e72d62" d="M180.5 234.5c4.317.82 6.817 3.487 7.5 8 1.258 6.368-1.242 9.202-7.5 8.5l-2.5-2.5c-1.282-5.205-.449-9.872 2.5-14Z"/>
  <path fill="#fbdbe1" d="M180.5 236.5h3v4c-3.454.233-4.454-1.1-3-4Z"/>
  <path fill="#e72d62" d="M209.5 236.5c8.459 1.612 12.626 6.612 12.5 15-2.339 4.756-5.839 5.923-10.5 3.5-4.65-4.574-6.15-10.074-4.5-16.5.995-.566 1.828-1.233 2.5-2Z"/>
  <path fill="#fbdbe1" d="M209.5 238.5c3.661-.15 4.661 1.35 3 4.5-3.793.487-4.793-1.013-3-4.5Z"/>
  <path fill="#e72d62" d="M194.5 245.5c9.314 3.467 11.314 9.3 6 17.5-8.101.55-11.268-3.283-9.5-11.5.564-2.387 1.73-4.387 3.5-6Z"/>
  <path fill="#fbdbe1" d="M194.5 248.5c2.666-.434 3.833.566 3.5 3-3.597 1.566-4.763.566-3.5-3Z"/>
</svg>

<?xml version="1.0" encoding="UTF-8"?>
<!DOCTYPE svg PUBLIC "-//W3C//DTD SVG 1.1//EN" "http://www.w3.org/Graphics/SVG/1.1/DTD/svg11.dtd">
<svg xmlns="http://www.w3.org/2000/svg" version="1.1" width="339px" height="340px" style="shape-rendering:geometricPrecision; text-rendering:geometricPrecision; image-rendering:optimizeQuality; fill-rule:evenodd; clip-rule:evenodd" xmlns:xlink="http://www.w3.org/1999/xlink">
<g><path style="opacity:1" fill="#e00c58" d="M 189.5,85.5 C 188.566,86.5676 188.232,87.901 188.5,89.5C 176.631,88.8258 168.464,94.1591 164,105.5C 161.389,116.776 159.056,128.109 157,139.5C 155.312,156.777 154.145,174.11 153.5,191.5C 154.693,207.815 155.526,224.148 156,240.5C 158.453,249.162 161.119,257.828 164,266.5C 169.627,278.213 178.794,284.88 191.5,286.5C 180.86,288.295 170.026,289.628 159,290.5C 151.171,288.779 143.338,287.112 135.5,285.5C 133.485,284.076 131.152,283.41 128.5,283.5C 105.974,277.494 87.8075,265.161 74,246.5C 69.7678,240.702 66.6012,234.369 64.5,227.5C 63.9767,224.11 63.1434,220.777 62,217.5C 61.6174,216.944 61.1174,216.611 60.5,216.5C 60.5,216.167 60.5,215.833 60.5,215.5C 59.1185,203.708 58.1185,191.875 57.5,180C 58.1379,174.578 58.1379,169.245 57.5,164C 59.5785,162.73 59.9118,161.23 58.5,159.5C 71.1954,118.623 98.8621,95.2897 141.5,89.5C 142.586,89.38 143.253,88.7133 143.5,87.5C 143.457,86.5836 143.124,85.9169 142.5,85.5C 141.239,78.3083 137.906,72.3083 132.5,67.5C 131.571,66.3112 131.238,64.9778 131.5,63.5C 140.803,60.8256 148.47,63.1589 154.5,70.5C 154.56,71.0431 154.893,71.3764 155.5,71.5C 156.466,69.604 156.799,67.604 156.5,65.5C 157.452,59.0573 160.619,54.0573 166,50.5C 172.755,55.3336 176.422,62.0003 177,70.5C 183.388,63.4432 191.221,61.1099 200.5,63.5C 199.063,67.1435 196.896,70.4768 194,73.5C 192.2,77.4258 190.7,81.4258 189.5,85.5 Z"/></g>
<g><path style="opacity:1" fill="#c71d55" d="M 188.5,89.5 C 189.167,89.5 189.833,89.5 190.5,89.5C 229.72,94.2339 256.553,114.901 271,151.5C 279.474,182.698 276.474,212.698 262,241.5C 245.627,267.449 222.127,282.449 191.5,286.5C 178.794,284.88 169.627,278.213 164,266.5C 161.119,257.828 158.453,249.162 156,240.5C 155.526,224.148 154.693,207.815 153.5,191.5C 154.145,174.11 155.312,156.777 157,139.5C 159.056,128.109 161.389,116.776 164,105.5C 168.464,94.1591 176.631,88.8258 188.5,89.5 Z"/></g>
<g><path style="opacity:1" fill="#fcedca" d="M 182.5,96.5 C 235.435,100.602 263.769,129.102 267.5,182C 268.123,207.124 260.957,229.624 246,249.5C 230.697,264.652 212.364,273.985 191,277.5C 183.233,276.735 177.233,273.068 173,266.5C 168.286,256.355 165.619,245.689 165,234.5C 164.333,206.833 164.333,179.167 165,151.5C 165.695,137.303 167.695,123.303 171,109.5C 173.3,103.706 177.133,99.373 182.5,96.5 Z"/></g>
<g><path style="opacity:1" fill="#b20a4b" d="M 185.5,106.5 C 227.074,108.909 251.574,130.576 259,171.5C 259.785,182.536 259.452,193.536 258,204.5C 255.303,213.767 249.136,217.934 239.5,217C 227.682,212.706 215.682,208.706 203.5,205C 192.922,200.408 183.422,194.242 175,186.5C 174.138,184.913 173.471,183.246 173,181.5C 172.263,162.416 173.263,143.416 176,124.5C 175.82,116.517 178.987,110.517 185.5,106.5 Z"/></g>
<g><path style="opacity:1" fill="#e82e63" d="M 185.5,112.5 C 191.761,111.437 195.095,113.937 195.5,120C 195.522,126.49 192.522,130.656 186.5,132.5C 185.228,132.43 184.062,132.097 183,131.5C 179.02,124.326 179.853,117.993 185.5,112.5 Z"/></g>
<g><path style="opacity:1" fill="#fbdbe1" d="M 185.5,114.5 C 190.197,115.874 190.531,117.874 186.5,120.5C 183.025,118.916 182.692,116.916 185.5,114.5 Z"/></g>
<g><path style="opacity:1" fill="#e82e63" d="M 205.5,115.5 C 216.493,115.686 219.327,120.686 214,130.5C 211.511,133.832 208.344,136.166 204.5,137.5C 200.069,135.959 198.402,132.792 199.5,128C 198.724,122.388 200.724,118.222 205.5,115.5 Z"/></g>
<g><path style="opacity:1" fill="#fce2e6" d="M 205.5,118.5 C 206.833,118.5 208.167,118.5 209.5,118.5C 209.99,120.948 209.157,122.615 207,123.5C 204.389,122.5 203.889,120.833 205.5,118.5 Z"/></g>
<g><path style="opacity:1" fill="#e83064" d="M 222.5,124.5 C 232.56,123.716 236.06,128.049 233,137.5C 228.544,143.001 223.044,144.834 216.5,143C 214.134,138.342 214.634,133.842 218,129.5C 219.707,127.963 221.207,126.296 222.5,124.5 Z"/></g>
<g><path style="opacity:1" fill="#fbe4e8" d="M 224.5,126.5 C 228.161,126.35 229.161,127.85 227.5,131C 223.707,131.487 222.707,129.987 224.5,126.5 Z"/></g>
<g><path style="opacity:1" fill="#e72e62" d="M 189.5,136.5 C 195.387,135.754 198.387,138.254 198.5,144C 198.267,152.581 194.1,156.414 186,155.5C 181.886,148.013 183.053,141.68 189.5,136.5 Z"/></g>
<g><path style="opacity:1" fill="#fbdde2" d="M 189.5,138.5 C 194.197,139.874 194.531,141.874 190.5,144.5C 187.025,142.916 186.692,140.916 189.5,138.5 Z"/></g>
<g><path style="opacity:1" fill="#e82e63" d="M 235.5,139.5 C 244.657,138.489 248.49,142.489 247,151.5C 241.972,156.952 235.806,158.785 228.5,157C 225.793,155.136 224.959,152.636 226,149.5C 228.696,145.639 231.863,142.306 235.5,139.5 Z"/></g>
<g><path style="opacity:1" fill="#fbdee3" d="M 237.5,141.5 C 241.138,140.737 242.638,142.07 242,145.5C 237.415,147.413 235.915,146.079 237.5,141.5 Z"/></g>
<g><path style="opacity:1" fill="#e72d62" d="M 205.5,144.5 C 217.676,145.474 219.676,150.64 211.5,160C 202.444,164.978 198.611,162.478 200,152.5C 201.273,149.403 203.107,146.736 205.5,144.5 Z"/></g>
<g><path style="opacity:1" fill="#fbd6dc" d="M 206.5,145.5 C 210.35,145.701 211.35,147.534 209.5,151C 205.537,151.118 204.537,149.284 206.5,145.5 Z"/></g>
<g><path style="opacity:1" fill="#e73164" d="M 217.5,159.5 C 225.379,159.216 228.212,162.883 226,170.5C 220.494,175.198 214.827,175.531 209,171.5C 208.333,169.833 208.333,168.167 209,166.5C 211.441,163.546 214.275,161.213 217.5,159.5 Z"/></g>
<g><path style="opacity:1" fill="#e72d62" d="M 242.5,157.5 C 250.498,157 254.331,160.667 254,168.5C 251.738,172.931 248.071,174.931 243,174.5C 239.349,174.505 236.016,173.505 233,171.5C 231.627,169.305 231.294,166.971 232,164.5C 235.154,161.488 238.654,159.155 242.5,157.5 Z"/></g>
<g><path style="opacity:1" fill="#fbd7dd" d="M 243.5,159.5 C 247.35,159.701 248.35,161.534 246.5,165C 242.537,165.118 241.537,163.284 243.5,159.5 Z"/></g>
<g><path style="opacity:1" fill="#fadde2" d="M 217.5,161.5 C 219.167,161.5 220.833,161.5 222.5,161.5C 222.5,162.833 222.5,164.167 222.5,165.5C 219.05,166.244 217.384,164.91 217.5,161.5 Z"/></g>
<g><path style="opacity:1" fill="#e73063" d="M 182.5,159.5 C 187.395,159.096 190.062,161.263 190.5,166C 189.758,171.672 186.758,175.505 181.5,177.5C 179.575,177.41 178.408,176.41 178,174.5C 177.333,170.833 177.333,167.167 178,163.5C 179.397,161.93 180.897,160.596 182.5,159.5 Z"/></g>
<g><path style="opacity:1" fill="#fbe4e7" d="M 181.5,162.5 C 182.833,162.5 184.167,162.5 185.5,162.5C 185.5,163.833 185.5,165.167 185.5,166.5C 184.167,166.5 182.833,166.5 181.5,166.5C 181.5,165.167 181.5,163.833 181.5,162.5 Z"/></g>
<g><path style="opacity:1" fill="#e43264" d="M 197.5,168.5 C 203.326,168.157 205.826,170.824 205,176.5C 202.598,182.092 198.431,183.925 192.5,182C 190.163,179.407 189.996,176.574 192,173.5C 193.73,171.598 195.563,169.931 197.5,168.5 Z"/></g>
<g><path style="opacity:1" fill="#f8d8de" d="M 197.5,170.5 C 198.5,170.5 199.5,170.5 200.5,170.5C 200.5,171.833 200.5,173.167 200.5,174.5C 197.046,174.733 196.046,173.4 197.5,170.5 Z"/></g>
<g><path style="opacity:1" fill="#e82f63" d="M 215.5,177.5 C 220.849,176.461 225.349,177.795 229,181.5C 230.608,188.62 227.774,191.954 220.5,191.5C 216.406,191.702 212.906,190.369 210,187.5C 209.333,185.5 209.333,183.5 210,181.5C 211.812,180.023 213.645,178.69 215.5,177.5 Z"/></g>
<g><path style="opacity:1" fill="#fbe3e6" d="M 220.5,179.5 C 221.833,179.5 223.167,179.5 224.5,179.5C 224.99,181.948 224.157,183.615 222,184.5C 219.389,183.5 218.889,181.833 220.5,179.5 Z"/></g>
<g><path style="opacity:1" fill="#e72e63" d="M 239.5,177.5 C 245.701,176.285 250.868,177.952 255,182.5C 256.377,190.79 252.877,194.623 244.5,194C 237.845,192.679 234.011,188.846 233,182.5C 234.805,180.174 236.972,178.508 239.5,177.5 Z"/></g>
<g><path style="opacity:1" fill="#fbe0e5" d="M 245.5,179.5 C 249.138,178.737 250.638,180.07 250,183.5C 246.331,185.009 244.831,183.676 245.5,179.5 Z"/></g>
<g><path style="opacity:1" fill="#e62e62" d="M 191.5,185.5 C 195.783,184.989 199.783,185.656 203.5,187.5C 205.953,189.996 206.12,192.662 204,195.5C 197.132,199 191.965,197.166 188.5,190C 189.315,188.357 190.315,186.857 191.5,185.5 Z"/></g>
<g><path style="opacity:1" fill="#fbd6dc" d="M 197.5,186.5 C 200.5,186.167 201.833,187.5 201.5,190.5C 200.167,190.5 198.833,190.5 197.5,190.5C 197.5,189.167 197.5,187.833 197.5,186.5 Z"/></g>
<g><path style="opacity:1" fill="#e72f63" d="M 211.5,194.5 C 216.765,193.571 221.265,194.904 225,198.5C 225.067,207.851 220.9,210.017 212.5,205C 208.935,201.784 208.602,198.284 211.5,194.5 Z"/></g>
<g><path style="opacity:1" fill="#e73064" d="M 235.5,196.5 C 240.715,195.702 245.215,197.036 249,200.5C 251.343,209.492 247.843,212.992 238.5,211C 233.922,208.788 231.422,205.288 231,200.5C 232.25,198.807 233.75,197.473 235.5,196.5 Z"/></g>
<g><path style="opacity:1" fill="#fbe3e7" d="M 218.5,197.5 C 219.833,197.5 221.167,197.5 222.5,197.5C 222.5,198.833 222.5,200.167 222.5,201.5C 221.167,201.5 219.833,201.5 218.5,201.5C 218.5,200.167 218.5,198.833 218.5,197.5 Z"/></g>
<g><path style="opacity:1" fill="#fbe1e6" d="M 240.5,198.5 C 243.91,198.384 245.244,200.05 244.5,203.5C 240.065,204.078 238.732,202.411 240.5,198.5 Z"/></g>
<g><path style="opacity:1" fill="#b30d4b" d="M 177.5,202.5 C 179.199,202.34 180.866,202.506 182.5,203C 188.67,206.919 195.003,210.586 201.5,214C 213.107,217.482 224.441,221.482 235.5,226C 242.296,229.422 244.129,234.589 241,241.5C 228.508,255.481 213.008,264.148 194.5,267.5C 187.786,267.224 182.619,264.224 179,258.5C 176.565,253.764 174.899,248.764 174,243.5C 172.536,232.196 171.869,220.862 172,209.5C 172.938,206.402 174.772,204.069 177.5,202.5 Z"/></g>
<g><path style="opacity:1" fill="#e62e62" d="M 188.5,211.5 C 192.182,211.591 195.349,212.924 198,215.5C 199.167,221 197,223.167 191.5,222C 186.971,219.197 185.971,215.697 188.5,211.5 Z"/></g>
<g><path style="opacity:1" fill="#fbdde2" d="M 189.5,212.5 C 192.861,213.203 193.194,214.537 190.5,216.5C 188.358,215.563 188.024,214.23 189.5,212.5 Z"/></g>
<g><path style="opacity:1" fill="#e73164" d="M 177.5,214.5 C 180.079,214.083 182.246,214.75 184,216.5C 184.667,219.167 184.667,221.833 184,224.5C 179.618,228.946 176.451,228.113 174.5,222C 175.222,219.323 176.222,216.823 177.5,214.5 Z"/></g>
<g><path style="opacity:1" fill="#fbe7ea" d="M 178.5,215.5 C 179.5,215.5 180.5,215.5 181.5,215.5C 181.5,216.5 181.5,217.5 181.5,218.5C 180.5,218.5 179.5,218.5 178.5,218.5C 178.5,217.5 178.5,216.5 178.5,215.5 Z"/></g>
<g><path style="opacity:1" fill="#e73063" d="M 203.5,219.5 C 209.995,218.74 213.995,221.407 215.5,227.5C 215.61,229.374 214.944,230.874 213.5,232C 206.451,233.646 202.118,230.979 200.5,224C 200.557,221.791 201.557,220.291 203.5,219.5 Z"/></g>
<g><path style="opacity:1" fill="#fbe1e6" d="M 202.5,221.5 C 203.833,221.5 205.167,221.5 206.5,221.5C 206.5,222.833 206.5,224.167 206.5,225.5C 203.5,225.833 202.167,224.5 202.5,221.5 Z"/></g>
<g><path style="opacity:1" fill="#e72f63" d="M 190.5,225.5 C 196.809,226.306 200.809,229.806 202.5,236C 200.618,243.182 196.784,244.349 191,239.5C 187.99,234.821 187.823,230.154 190.5,225.5 Z"/></g>
<g><path style="opacity:1" fill="#fbdfe4" d="M 191.5,227.5 C 194.5,227.167 195.833,228.5 195.5,231.5C 193.833,231.5 192.167,231.5 190.5,231.5C 190.433,230.041 190.766,228.708 191.5,227.5 Z"/></g>
<g><path style="opacity:1" fill="#e72f63" d="M 222.5,226.5 C 232.259,226.428 237.092,231.095 237,240.5C 234.749,244.126 231.582,245.293 227.5,244C 222.991,240.995 220.324,236.828 219.5,231.5C 220.092,229.577 221.092,227.911 222.5,226.5 Z"/></g>
<g><path style="opacity:1" fill="#fadae0" d="M 222.5,228.5 C 223.873,228.343 225.207,228.51 226.5,229C 227.474,231.702 226.474,233.035 223.5,233C 221.452,231.774 221.119,230.274 222.5,228.5 Z"/></g>
<g><path style="opacity:1" fill="#e73063" d="M 180.5,234.5 C 184.817,235.32 187.317,237.987 188,242.5C 189.258,248.868 186.758,251.702 180.5,251C 179.667,250.167 178.833,249.333 178,248.5C 176.718,243.295 177.551,238.628 180.5,234.5 Z"/></g>
<g><path style="opacity:1" fill="#fae0e4" d="M 180.5,236.5 C 181.5,236.5 182.5,236.5 183.5,236.5C 183.5,237.833 183.5,239.167 183.5,240.5C 180.046,240.733 179.046,239.4 180.5,236.5 Z"/></g>
<g><path style="opacity:1" fill="#e72d62" d="M 209.5,236.5 C 217.959,238.112 222.126,243.112 222,251.5C 219.661,256.256 216.161,257.423 211.5,255C 206.85,250.426 205.35,244.926 207,238.5C 207.995,237.934 208.828,237.267 209.5,236.5 Z"/></g>
<g><path style="opacity:1" fill="#f7d6dc" d="M 209.5,238.5 C 213.161,238.35 214.161,239.85 212.5,243C 208.707,243.487 207.707,241.987 209.5,238.5 Z"/></g>
<g><path style="opacity:1" fill="#e62f63" d="M 194.5,245.5 C 203.814,248.967 205.814,254.8 200.5,263C 192.399,263.55 189.232,259.717 191,251.5C 191.564,249.113 192.73,247.113 194.5,245.5 Z"/></g>
<g><path style="opacity:1" fill="#f9e3e7" d="M 194.5,248.5 C 197.166,248.066 198.333,249.066 198,251.5C 194.403,253.066 193.237,252.066 194.5,248.5 Z"/></g>
</svg>
